X:4
T:Reel 4
M: 4/4
L:1/8
K: G Major
BA|G2GGG2BA|G2GGG2AB|G2GGADBD|cDADG2BA|G2GGG2BA|G2GGG2BA|GABcdBde|dBABG2|AG|FEFGA2AB|GFGBADDE|FEFGABce|dBABADDE|FEFGA2AB|GFGBA2Bc|dBcAdGeG|dBABG2|BA|GFGABABd|cBABceed|GFGAB2Bc|dBABceed|BGdGeGdG|cBABA2Bc|dBcAdGeG|dBABG2|.abc